public/svg/roadmap.svg

<svg xmlns="http://www.w3.org/2000/svg" width="56" height="56" viewBox="0 0 56 56" fill="none">
<path d="M13.9997 49.0001C16.577 49.0001 18.6663 46.9107 18.6663 44.3334C18.6663 41.7561 16.577 39.6667 13.9997 39.6667C11.4223 39.6667 9.33301 41.7561 9.33301 44.3334C9.33301 46.9107 11.4223 49.0001 13.9997 49.0001Z" stroke="#1B5BF7" stroke-width="3.5" stroke-linecap="round" stroke-linejoin="round"/>
<path d="M41.9997 16.3333C44.577 16.3333 46.6663 14.244 46.6663 11.6667C46.6663 9.08934 44.577 7 41.9997 7C39.4223 7 37.333 9.08934 37.333 11.6667C37.333 14.244 39.4223 16.3333 41.9997 16.3333Z" stroke="#1B5BF7" stroke-width="3.5" stroke-linecap="round" stroke-linejoin="round"/>
<path d="M28.0003 44.3334H38.5003C40.6663 44.3334 42.7435 43.473 44.275 41.9415C45.8066 40.4099 46.667 38.3327 46.667 36.1667C46.667 34.0008 45.8066 31.9236 44.275 30.392C42.7435 28.8605 40.6663 28.0001 38.5003 28.0001H19.8337C17.6677 28.0001 15.5905 27.1397 14.059 25.6081C12.5274 24.0766 11.667 21.9993 11.667 19.8334C11.667 17.6675 12.5274 15.5903 14.059 14.0587C15.5905 12.5272 17.6677 11.6667 19.8337 11.6667H28.0003" stroke="#1B5BF7" stroke-width="3.5" stroke-linecap="round" stroke-linejoin="round"/>
</svg>

<svg xmlns="http://www.w3.org/2000/svg" width="56" height="56" fill="none" stroke="#1b5bf7" stroke-width="3.5" stroke-linejoin="round" xmlns:v="https://vecta.io/nano"><path d="M14 49a4.67 4.67 0 0 0 4.667-4.667A4.67 4.67 0 0 0 14 39.667a4.67 4.67 0 0 0-4.667 4.667A4.67 4.67 0 0 0 14 49zm28-32.667a4.67 4.67 0 0 0 4.667-4.667A4.67 4.67 0 0 0 42 7a4.67 4.67 0 0 0-4.667 4.667A4.67 4.67 0 0 0 42 16.333z"/><path d="M28 44.333h10.5c2.166 0 4.243-.86 5.775-2.392s2.392-3.609 2.392-5.775-.86-4.243-2.392-5.775S40.666 28 38.5 28H19.834c-2.166 0-4.243-.86-5.775-2.392s-2.392-3.609-2.392-5.775.86-4.243 2.392-5.775 3.609-2.392 5.775-2.392H28" stroke-linecap="round"/></svg>
